src/images/advantages/award-icon.svg

<svg fill="none" height="29" viewBox="0 0 28 29" width="28" xmlns="http://www.w3.org/2000/svg"><g fill="#080807"><path d="m3.93767 14.6667c.05498-.1029.05498-.227 0-.3316l-.92922-1.7973c-.26245-.5072-.31122-1.1065-.13389-1.6474.01153-.0355.03104-.0674.04611-.1029h-2.205138c-.25802 0-.496533.1384-.6224391.3636-.1276798.2243-.1232464.5.0106401.7199l1.589787 2.629-1.589787 2.6325c-.1329999.2199-.1374332.4965-.0115267.72.1276797.2252.3644197.3635.6224387.3635h2.206025c-.01507-.0381-.03458-.0691-.04611-.1055-.17644-.5364-.12856-1.1376.13212-1.6448z"/><path d="m23.283 15.0693c-.1844-.3556-.1844-.7812 0-1.1367l.9301-1.7955c.1534-.3015.1827-.6509.0789-.9736-.1055-.321-.3342-.587-.6375-.7404l-1.8043-.90259c-.3627-.18176-.6109-.52668-.673-.92568l-.3006-1.99588c-.0496-.33427-.2341-.63396-.5072-.83346-.2722-.20039-.6153-.28108-.9478-.22699l-1.995.32984c-.3972.0665-.8024-.06384-1.0844-.35289l-1.4196-1.43906c-.2394-.24029-.5648-.37772-.9008-.37772-.0071 0-.0142.00177-.0213.00177s-.0142-.00177-.0213-.00177c-.3369 0-.6623.13743-.9008.37772l-1.4205 1.43817c-.281.28905-.6862.41939-1.0843.35289l-1.99504-.32984c-.3325-.05408-.67564.0266-.94785.22699-.27398.20039-.4584.49919-.50717.83346l-.30147 1.99589c-.06117.399-.31033.74391-.67297.92568l-1.80437.90267c-.30324.1533-.532.4193-.63751.7403-.10374.3228-.07448.6721.07891.9736l.93012 1.7955c.18442.3555.18442.7811 0 1.1367l-.93012 1.7946c-.15339.3015-.18265.6508-.07891.9744.10551.3219.33516.587.63751.7404l1.80437.9026c.36353.1818.6118.5267.67297.9266l.30058 1.995c.05054.336.23497.6375.50718.8326.27309.2012.61534.2801.94784.2269l1.99593-.3289c.3972-.0674.8024.0638 1.0843.3529l1.4205 1.439c.2385.2386.5639.376.9008.376.0071 0 .0133-.0018.0204-.0018s.0133.0018.0204.0018c.3361 0 .6624-.1374.9009-.376l1.4204-1.439c.282-.2891.6872-.4212 1.0844-.3529l1.9959.3289c.3325.0541.6756-.0257.9478-.2269.2731-.196.4567-.4975.5072-.8326l.3006-1.995c.0621-.3999.3103-.7448.673-.9275l1.8043-.9026c.3033-.1534.532-.4185.6375-.7395.1038-.3227.0745-.6729-.0789-.9744zm-9.2621 6.9381c-.0071 0-.0142-.0018-.0213-.0018s-.0142.0018-.0212.0018c-4.24274 0-7.69542-3.4535-7.69542-7.698 0-4.2427 3.45268-7.69538 7.69542-7.69538.007 0 .0141.00089.0212.00089s.0142-.00089.0213-.00089c4.2427 0 7.6954 3.45268 7.6954 7.69538.0009 4.2445-3.4527 7.698-7.6954 7.698z"/><path d="m14.0199 7.72412c-.0071 0-.0133.00089-.0195.00089-.0071 0-.0133-.00089-.0195-.00089-3.6265 0-6.57465 2.94998-6.57465 6.57638 0 3.6238 2.94815 6.5729 6.57465 6.5729.0062 0 .0133-.0009.0195-.0009s.0133.0009.0195.0009c3.6256 0 6.5746-2.9491 6.5746-6.5729-.0009-3.6256-2.949-6.57638-6.5746-6.57638z"/><path d="m26.3064 14.5 1.5898-2.629c.133-.2207.1383-.4965.0106-.7199-.1259-.2252-.3644-.3636-.6224-.3636h-2.2052c.0151.0355.0346.0674.0461.1029.1774.5409.1286 1.1402-.1338 1.6474l-.9293 1.7973c-.0549.1046-.0549.2287 0 .3316l.9319 1.799c.2607.5072.3095 1.1084.1321 1.6448-.0115.0364-.031.0674-.0461.1055h2.2052c.258 0 .4956-.1383.6224-.3635.1268-.2243.1215-.5001-.0115-.72z"/></g></svg>

<svg width="28" height="29" viewBox="0 0 28 29" fill="none" xmlns="http://www.w3.org/2000/svg">
<g id="award-belt-shape-svgrepo-com 1">
<g id="Group">
<g id="Group_2">
<path id="Vector" d="M3.93767 14.6667C3.99265 14.5638 3.99265 14.4397 3.93767 14.3351L3.00845 12.5378C2.746 12.0306 2.69723 11.4313 2.87456 10.8904C2.88609 10.8549 2.9056 10.823 2.92067 10.7875H0.715532C0.457512 10.7875 0.218999 10.9259 0.0930929 11.1511C-0.0345869 11.3754 -0.0301535 11.6511 0.103733 11.871L1.69352 14.5L0.103733 17.1325C-0.0292669 17.3524 -0.0337002 17.629 0.0922063 17.8525C0.219886 18.0777 0.456626 18.216 0.714645 18.216H2.92067C2.9056 18.1779 2.88609 18.1469 2.87456 18.1105C2.69812 17.5741 2.746 16.9729 3.00668 16.4657L3.93767 14.6667Z" fill="#080807"/>
<path id="Vector_2" d="M23.283 15.0693C23.0986 14.7137 23.0986 14.2881 23.283 13.9326L24.2131 12.1371C24.3665 11.8356 24.3958 11.4862 24.292 11.1635C24.1865 10.8425 23.9578 10.5765 23.6545 10.4231L21.8502 9.52051C21.4875 9.33875 21.2393 8.99383 21.1772 8.59483L20.8766 6.59895C20.827 6.26468 20.6425 5.96499 20.3694 5.76549C20.0972 5.5651 19.7541 5.48441 19.4216 5.5385L17.4266 5.86834C17.0294 5.93484 16.6242 5.8045 16.3422 5.51545L14.9226 4.07639C14.6832 3.8361 14.3578 3.69867 14.0218 3.69867C14.0147 3.69867 14.0076 3.70044 14.0005 3.70044C13.9934 3.70044 13.9863 3.69867 13.9792 3.69867C13.6423 3.69867 13.3169 3.8361 13.0784 4.07639L11.6579 5.51456C11.3769 5.80361 10.9717 5.93395 10.5736 5.86745L8.57856 5.53761C8.24606 5.48353 7.90292 5.56421 7.63071 5.7646C7.35673 5.96499 7.17231 6.26379 7.12354 6.59806L6.82207 8.59395C6.7609 8.99295 6.51174 9.33786 6.1491 9.51963L4.34473 10.4223C4.04149 10.5756 3.81273 10.8416 3.70722 11.1626C3.60348 11.4854 3.63274 11.8347 3.78613 12.1362L4.71625 13.9317C4.90067 14.2872 4.90067 14.7128 4.71625 15.0684L3.78613 16.863C3.63274 17.1645 3.60348 17.5138 3.70722 17.8374C3.81273 18.1593 4.04238 18.4244 4.34473 18.5778L6.1491 19.4804C6.51263 19.6622 6.7609 20.0071 6.82207 20.407L7.12265 22.402C7.17319 22.738 7.35762 23.0395 7.62983 23.2346C7.90292 23.4358 8.24517 23.5147 8.57767 23.4615L10.5736 23.1326C10.9708 23.0652 11.376 23.1964 11.6579 23.4855L13.0784 24.9245C13.3169 25.1631 13.6423 25.3005 13.9792 25.3005C13.9863 25.3005 13.9925 25.2987 13.9996 25.2987C14.0067 25.2987 14.0129 25.3005 14.02 25.3005C14.3561 25.3005 14.6824 25.1631 14.9209 24.9245L16.3413 23.4855C16.6233 23.1964 17.0285 23.0643 17.4257 23.1326L19.4216 23.4615C19.7541 23.5156 20.0972 23.4358 20.3694 23.2346C20.6425 23.0386 20.8261 22.7371 20.8766 22.402L21.1772 20.407C21.2393 20.0071 21.4875 19.6622 21.8502 19.4795L23.6545 18.5769C23.9578 18.4235 24.1865 18.1584 24.292 17.8374C24.3958 17.5147 24.3665 17.1645 24.2131 16.863L23.283 15.0693ZM14.0209 22.0074C14.0138 22.0074 14.0067 22.0056 13.9996 22.0056C13.9925 22.0056 13.9854 22.0074 13.9784 22.0074C9.73566 22.0074 6.28298 18.5539 6.28298 14.3094C6.28298 10.0667 9.73566 6.61402 13.9784 6.61402C13.9854 6.61402 13.9925 6.61491 13.9996 6.61491C14.0067 6.61491 14.0138 6.61402 14.0209 6.61402C18.2636 6.61402 21.7163 10.0667 21.7163 14.3094C21.7172 18.5539 18.2636 22.0074 14.0209 22.0074Z" fill="#080807"/>
<path id="Vector_3" d="M14.0199 7.72412C14.0128 7.72412 14.0066 7.72501 14.0004 7.72501C13.9933 7.72501 13.9871 7.72412 13.9809 7.72412C10.3544 7.72412 7.40625 10.6741 7.40625 14.3005C7.40625 17.9243 10.3544 20.8734 13.9809 20.8734C13.9871 20.8734 13.9942 20.8725 14.0004 20.8725C14.0066 20.8725 14.0137 20.8734 14.0199 20.8734C17.6455 20.8734 20.5945 17.9243 20.5945 14.3005C20.5936 10.6749 17.6455 7.72412 14.0199 7.72412Z" fill="#080807"/>
<path id="Vector_4" d="M26.3064 14.5L27.8962 11.871C28.0292 11.6503 28.0345 11.3745 27.9068 11.1511C27.7809 10.9259 27.5424 10.7875 27.2844 10.7875H25.0792C25.0943 10.823 25.1138 10.8549 25.1253 10.8904C25.3027 11.4313 25.2539 12.0306 24.9915 12.5378L24.0622 14.3351C24.0073 14.4397 24.0073 14.5638 24.0622 14.6667L24.9941 16.4657C25.2548 16.9729 25.3036 17.5741 25.1262 18.1105C25.1147 18.1469 25.0952 18.1779 25.0801 18.216H27.2853C27.5433 18.216 27.7809 18.0777 27.9077 17.8525C28.0345 17.6282 28.0292 17.3524 27.8962 17.1325L26.3064 14.5Z" fill="#080807"/>
</g>
</g>
</g>
</svg>
